X: 29371
T: Newmarket, The
R: polka
M: 2/4
K: Amajor
|:ef/e/ ce/c/|BE Ac|BE AB|cB B2|
ef/e/ ce/c/|BE Ac|BE AB|cA A2:|
|:ef/g/ a2|gf f/g/f/e/|ce fg|fe e2|
ef/g/ a2|gf f/g/f/e/|ce fg|a2- a2:|

